PortableApps/LibreOfficePortable/App/libreoffice/help/media/icon-themes/cmd/sc_datasort.svg

<svg viewBox="0 0 16 16" xmlns="http://www.w3.org/2000/svg"><path d="m4.5136719 1.0019531c-.2235712-.0014192-.285438.0824269-.3964844.1777344l-3.96679688 3.96875c-.32091642.3132205-.09882591.8579006.34960938.8574219.1345257.0000174.26337774-.0541989.35742188-.1503906l3.14257812-3.1484376v11.7871098c-.0033879.275449.2167494.501659.4921875.505859.2815542.004553.5112825-.224289.5078125-.505859v-11.7871098l3.1425781 3.1484376c.4713638.4716024 1.178439-.2354728.7070313-.7070313l-3.9804688-3.984375c-.1550255-.1359129-.2117407-.1672834-.3554687-.1621094zm6.9785161 0c-.275438.004158-.495576.2304106-.492188.5058594v11.7871095l-3.1425781-3.148438c-.0940441-.096192-.2228962-.1504072-.3574219-.1503902-.4484353-.0004791-.6705258.5442022-.3496094.8574222l3.9667974 3.96875c.158012.145727.279671.185276.406416.17596.126919.0061.268226-.1041.345844-.16033l3.980468-3.984375c.471047-.471359-.235984-1.1783903-.707338-.707037l-3.142578 3.148438v-11.7871095c.0035-.2815698-.226259-.51041218-.507812-.5058594z" fill="#4d82b8"/></svg>

<svg viewBox="0 0 16 16" xmlns="http://www.w3.org/2000/svg">
  <path
     fill="#4d82b8"
     d="M 4.5136719,1.0019531 C 4.2901007,1.0005339 4.2282339,1.08438 4.1171875,1.1796875 l -3.96679688,3.96875 C -0.1705258,5.461658 0.05156471,6.0063381 0.5,6.0058594 0.6345257,6.0058768 0.76337774,5.9516605 0.85742188,5.8554688 L 4,2.7070312 V 14.494141 C 3.9966121,14.76959 4.2167494,14.9958 4.4921875,15 4.7737417,15.004553 5.00347,14.775711 5,14.494141 V 2.7070312 L 8.1425781,5.8554688 C 8.6139419,6.3270712 9.3210171,5.619996 8.8496094,5.1484375 L 4.8691406,1.1640625 C 4.7141151,1.0281496 4.6573999,0.9967791 4.5136719,1.0019531 Z m 6.9785161,0 C 11.21675,1.0061111 10.996612,1.2323637 11,1.5078125 V 13.294922 L 7.8574219,10.146484 C 7.7633778,10.050292 7.6345257,9.9960768 7.5,9.9960938 7.0515647,9.9956147 6.8294742,10.540296 7.1503906,10.853516 l 3.9667974,3.96875 c 0.158012,0.145727 0.279671,0.185276 0.406416,0.17596 0.126919,0.0061 0.268226,-0.1041 0.345844,-0.16033 l 3.980468,-3.984375 C 16.320963,10.382162 15.613932,9.6751307 15.142578,10.146484 L 12,13.294922 V 1.5078125 C 12.0035,1.2262427 11.773741,0.99740032 11.492188,1.0019531 Z" />
</svg>
